dist/images/scm-tinymce-link-wrapper.svg

<svg id="Layer_1" data-name="Layer 1" xmlns="http://www.w3.org/2000/svg" width="40" height="40" viewBox="0 0 40 40"><defs><style>.cls-1{fill:#555d66;}.cls-2{isolation:isolate;}</style></defs><path class="cls-1" d="M36,4V36H4V4H36m0-4H4A4,4,0,0,0,0,4V36a4,4,0,0,0,4,4H36a4,4,0,0,0,4-4V4A4,4,0,0,0,36,0Z"/><g class="cls-2"><path class="cls-1" d="M19.4248,9.71387a1.21535,1.21535,0,0,1,1.72168,0l9.87207,9.86718a1.21361,1.21361,0,0,1,0,1.72168L21.14648,31.1748a1.21535,1.21535,0,0,1-1.72168,0l-1.127-1.12792a1.21893,1.21893,0,0,1,.02051-1.74122l6.11914-5.83007H9.84277A1.21533,1.21533,0,0,1,8.624,21.25684v-1.625a1.21533,1.21533,0,0,1,1.21875-1.21875H24.4375L18.31836,12.583a1.21048,1.21048,0,0,1-.02051-1.74121Z"/></g></svg>

<svg id="Layer_1" data-name="Layer 1" xmlns="http://www.w3.org/2000/svg" width="40" height="40"><defs><style>.cls-1{fill:#555d66}</style></defs><path class="cls-1" d="M36 4v32H4V4h32m0-4H4a4 4 0 00-4 4v32a4 4 0 004 4h32a4 4 0 004-4V4a4 4 0 00-4-4z"/><path class="cls-1" d="M19.425 9.714a1.215 1.215 0 011.721 0l9.873 9.867a1.214 1.214 0 010 1.722l-9.873 9.872a1.215 1.215 0 01-1.721 0l-1.127-1.128a1.219 1.219 0 01.02-1.741l6.12-5.83H9.842a1.215 1.215 0 01-1.219-1.22v-1.624a1.215 1.215 0 011.219-1.219h14.595l-6.12-5.83a1.21 1.21 0 01-.02-1.741z"/></svg>
